X:1112
T:Irish Air.
M:3/4
L:1/8
Q:1/4=80 "Very Slow"
I: :: ::
Z:Jack Campin * www.campin.me.uk * 2009
K:G
G3    A{GA}BA |   G2  TE2  D2| D>E      G>A      B>{d}c |B3/c//B// A4   |
G3    A{GA}BA |   G2   E2  D2| D>E      G>E      A>B    |A4          G2:|
G>A B>c    d>g|  (ed)`TcB`TAG|(a/<g/)e (e/<d/)B (c/<B/)G|A/<G/E    E3 F |
G>A B>c    d>g|  (ed)`TcB`TAG|(e/<d/)B (c/<B/)G (A/<G/)E|F>G       A4   |
G3    A````BA |{A}G2  TE2  D2|(D>E)    (G>E)     A>B    |A4          G2:|
<end>
<start>
